X:19143
T:Xota de La Rosa (XA 46) (Arrg.)
T:Jota de La Rosa (XA 46) (Arrg.)
R:Xota
C:Tradicional
S:Música Tradicional Asturiana, (C) Tello & Tito. Asturies, 2001.
S:http://pagina.de/MusTradAst <telloytito@asturies.org>
A:Asturies
G:Arrg.
Z:Métodu de Xuacu Amieva 46
M:3/8
L:1/8
Q:3/8=72
K:C
|:"F"A/B/A/G/~G/F/|"C"G/A/G/F/E/D/|"G"G/A/G/F/E/F/|"C"~EDC|
|"F"A/B/A/G/~G/F/|"C"G/A/G/F/~E/D/|"G"G/A/G/F/~E/D/|"C"C3:|
|:"Am"c/d/c/B/A/G/|"F"F3|"F"A/B/A/G/~G/F/|"C"G/A/G/F/E/F/:|
|:"F"A/B/A/G/~G/F/|"C"G/A/G/F/E/D/:|"F"A~GF|:"C"G/A/~G/F/~E/D/|"C"G/A/~G/F/~E/D/:|
|"C"G/A/~G/F/~E/D/|"Am"c/e/d/c/B/A/|"G"G3|"F"F"C"~E"G"~E|"C"C3-|"C"C2 C|
|:"C"E2 "G"~D|"C"CDC|"Dm"D2 ~C|"G"B, B,/C/D/E/|"F"F2 ~E|"Dm"DED|"Am"E2 "G"~D|"C"C2 C :|
|"C"E2 "G"~D|"C"CDC|"Dm"D/E/D/C/D/C/|"G"B, B,/C/D/E/|"F"F2 ~E|"Dm"DED|"Am"E2 "G"~D|"C"C3|


